X: 35
T: No_41_The_Two_Girls_Are_Together.krn
N: Derived from No_41_The_Two_Girls_Are_Together.krn
%%abc-version 2.0
%%abcx-abcm2ps-target-version 5.9.1 (29 Sep 2008)
%%abc-creator hum2abc beta
%%abcx-conversion-date 2019/03/15 08:35:00
%%humdrum-veritas 35698842
%%humdrum-veritas-data 3506937124
%%linebreak <none>
%%barnumbers 0
L: 1/8
M: 3/4
K: F clef=bass
[K:clef=bass][M:3/4]z4DC | 
(DC) B,C C z | 
DC (C=B,) CC | 
DC B,C C z | 
DC CC/ z/ (DC/)B,/ | 
[M:2/4]DC B,C | 
(CD) CC | 
(C=B,) CC/ z/ | 
[M:3/4]DC B,C C z | 
DC CC (DC) | 
DC B,C C z | 
[M:2/4]DC C z | 
[M:5/8]E/D3/D/C/D/C/B, | 
[M:2/4]CC (CB,) | 
C2DC/ z/ | 
[M:3/4]DC B,C C z | 
DC C z (DC) | 
DC B,C C z | 
DC CC DC | 
DC B,C C z | 
[M:2/4](DC) C z |]  



